X: 14995
T: Gentle Light That Wakes Me, The
R: reel
M: 4/4
K: Dmajor
|:A2 F2 A2 (G>F)|F2 (E>D) (F2 E2)|D2 (d>c) (B3 A)|A2 (D>E) (F2 E2)|
A2 F2 A2 (G>F)|F2 (E>D) (F2 E2)|D2 (B>A) A2 (D>E)|F2 E>D D4:|
|:d2 (c>d) e3 c|d2 (c>d) F4|d2 (c>d) B2 (A>B)|A2 (D>E) (F2 E2)|
d2 (f>e) e3 c|d2 (c>d) F3 E|D2 (B>A) A2 (D>E)|F2 E>D D4|
d2 (c>d) e3 c|d2 (c>d) F4|d2 (c>d) B2 (A>B)|A2 (D>E) (F2 E2)|
A2 F2 A2 (G>F)|F2 (E>D) (F2 E2)|D2 (B>A) A2 (D>E)|F2 E>D D4||

